optimizied/calendar-cross.svg

<svg xmlns="http://www.w3.org/2000/svg" viewBox="0 0 24 24" fill="currentColor">
  <path d="M0 0H24V24H0z"/>
  <path d="M4 17V9C4 6.8 5.8 5 8 5H16C18.2 5 20 6.8 20 9V17C20 19.2 18.2 21 16 21H8C5.7 21 4 19.2 4 17ZM8 7V3M16 7V3M9.79993 10.7999 14.0999 15.0999M14.0999 10.7999 9.79993 15.0999"/>
</svg>

<svg xmlns="http://www.w3.org/2000/svg" viewBox="0 0 24 24" fill="currentColor">
  <path d="M0 0h24v24H0z"/>
  <path stroke-miterlimit="10" stroke-width="1.5" d="M4 17V9c0-2.2 1.8-4 4-4h8c2.2 0 4 1.8 4 4v8c0 2.2-1.8 4-4 4H8c-2.3 0-4-1.8-4-4Z"/>
  <path stroke-linecap="round" stroke-miterlimit="10" stroke-width="1.5" d="M8 7V3m8 4V3m-6.20007 7.7999 4.29997 4.3m0-4.3-4.29997 4.3"/>
</svg>
